img/MemoryPainter.svg

<svg xmlns="http://www.w3.org/2000/svg" width="150" height="150" viewBox="0 0 150 150"><path fill="#CA9E67" stroke="#CA9E67" stroke-miterlimit="10" d="M17.531 48.889C32.205 23.557 72.608 1.783 87.448 12.878c33.051 24.713-2.797 51.611 2.797 60.764 3.968 6.495 22.305 5.667 22.373 22.373.068 16.509-49.28 48.604-78.061 36.404-51.094-21.657-27.466-65.507-17.026-83.53z"/><path fill="#209DD9" stroke="#209DD9" stroke-miterlimit="10" d="M41.717 115.338c-1.554-6.064 4.416-14.873 12.047-11.239 8.081 3.849 4.859 12.462 1.785 15.161-6.535 5.739-12.593.909-13.832-3.922z"/><path fill="#009741" stroke="#009741" stroke-miterlimit="10" d="M20.052 92.92c-1.667-6.714 4.737-16.465 12.923-12.442 8.668 4.261 5.212 13.795 1.914 16.784-7.01 6.353-13.509 1.005-14.837-4.342z"/><path fill="#FDEB1B" stroke="#FDEB1B" stroke-miterlimit="10" d="M30.787 64.229c-1.667-6.923 4.737-16.98 12.923-12.831 8.668 4.394 5.212 14.226 1.914 17.309-7.01 6.551-13.509 1.037-14.837-4.478z"/><path fill="#E30D18" stroke="#E30D18" stroke-miterlimit="10" d="M60.135 41.8c-1.991-7.742 5.655-18.987 15.425-14.348 10.347 4.913 6.222 15.909 2.286 19.355-8.367 7.327-16.125 1.16-17.711-5.007z"/><path fill="#A38A7B" stroke="#A38A7B" stroke-miterlimit="10" d="M131.705 43.006c-5.635 0-6.955 21.823-7.548 42.791-.312 11.027 2.742 54.329 7.542 54.329 4.008 0 7.548-39.471 7.488-53.772-.051-12.209-2.289-43.348-7.482-43.348z"/><path fill="#FFF" stroke="#FFF" stroke-miterlimit="10" d="M128.702 56.752s2.09.151 2.997.104c.812-.043 2.343-.321 2.343-.321l1.666 16.98s-1.924 1.647-4.11 1.642c-.985-.002-3.894-.594-3.894-.594l.998-17.811z"/><path fill="#442A19" stroke="#442A19" stroke-miterlimit="10" d="M131.699 57.619c9.203.004 16.449-5.587 16.449-17.409 0-14.991-13.348-28.658-15.29-28.563-4.146.203-5.065 9.393-7.974 12.355-5.359 5.457-9.635 12.764-9.635 18.305.001 9.471 6.166 14.841 16.45 15.312z"/><path fill="#FFF" stroke="#FFF" stroke-miterlimit="10" d="M124.251 48.582c-2.532-.002-3.218-6.543-2.649-9.011.665-2.885 5.297-11.519 5.297-11.519s-.171 20.532-2.648 20.53z"/></svg>

<?xml version="1.0" encoding="utf-8"?>
<!DOCTYPE svg PUBLIC "-//W3C//DTD SVG 1.1//EN" "http://www.w3.org/Graphics/SVG/1.1/DTD/svg11.dtd">
<svg version="1.1" id="Слой_1" xmlns="http://www.w3.org/2000/svg" xmlns:xlink="http://www.w3.org/1999/xlink" x="0px" y="0px"
	 width="150px" height="150px" viewBox="0 0 150 150" enable-background="new 0 0 150 150" xml:space="preserve">
<g id="Слой_2">
	<path fill="#CA9E67" stroke="#CA9E67" stroke-miterlimit="10" d="M17.531,48.889C32.205,23.557,72.608,1.783,87.448,12.878
		c33.051,24.713-2.797,51.611,2.797,60.764c3.968,6.495,22.305,5.667,22.373,22.373c0.068,16.509-49.28,48.604-78.061,36.404
		C-16.537,110.762,7.091,66.912,17.531,48.889z"/>
</g>
<g id="Слой_3">
	<path fill="#209DD9" stroke="#209DD9" stroke-miterlimit="10" d="M41.717,115.338c-1.554-6.064,4.416-14.873,12.047-11.239
		c8.081,3.849,4.859,12.462,1.785,15.161C49.014,124.999,42.956,120.169,41.717,115.338z"/>
</g>
<g id="Слой_3__x28_копия_x29_">
	<path fill="#009741" stroke="#009741" stroke-miterlimit="10" d="M20.052,92.92c-1.667-6.714,4.737-16.465,12.923-12.442
		c8.668,4.261,5.212,13.795,1.914,16.784C27.879,103.615,21.38,98.267,20.052,92.92z"/>
</g>
<g id="Слой_3__x28_копия2_x29_">
	<path fill="#FDEB1B" stroke="#FDEB1B" stroke-miterlimit="10" d="M30.787,64.229c-1.667-6.923,4.737-16.98,12.923-12.831
		c8.668,4.394,5.212,14.226,1.914,17.309C38.614,75.258,32.115,69.744,30.787,64.229z"/>
</g>
<g id="Слой_3__x28_копия3_x29_">
	<path fill="#E30D18" stroke="#E30D18" stroke-miterlimit="10" d="M60.135,41.8c-1.991-7.742,5.655-18.987,15.425-14.348
		c10.347,4.913,6.222,15.909,2.286,19.355C69.479,54.134,61.721,47.967,60.135,41.8z"/>
</g>
<path fill="#A38A7B" stroke="#A38A7B" stroke-miterlimit="10" d="M131.705,43.006c-5.635,0-6.955,21.823-7.548,42.791
	c-0.312,11.027,2.742,54.329,7.542,54.329c4.008,0,7.548-39.471,7.488-53.772C139.136,74.145,136.898,43.006,131.705,43.006z"/>
<g id="Слой_8">
	<path fill="#FFFFFF" stroke="#FFFFFF" stroke-miterlimit="10" d="M128.702,56.752c0,0,2.09,0.151,2.997,0.104
		c0.812-0.043,2.343-0.321,2.343-0.321l1.666,16.98c0,0-1.924,1.647-4.11,1.642c-0.985-0.002-3.894-0.594-3.894-0.594
		L128.702,56.752z"/>
</g>
<g id="Слой_7">
	<path fill="#442A19" stroke="#442A19" stroke-miterlimit="10" d="M131.699,57.619c9.203,0.004,16.449-5.587,16.449-17.409
		c0-14.991-13.348-28.658-15.29-28.563c-4.146,0.203-5.065,9.393-7.974,12.355c-5.359,5.457-9.635,12.764-9.635,18.305
		C115.25,51.778,121.415,57.148,131.699,57.619z"/>
</g>
<g id="Слой_9">
	<path fill="#FFFFFF" stroke="#FFFFFF" stroke-miterlimit="10" d="M124.251,48.582c-2.532-0.002-3.218-6.543-2.649-9.011
		c0.665-2.885,5.297-11.519,5.297-11.519S126.728,48.584,124.251,48.582z"/>
</g>
</svg>
